icons/lines/main-component-one.svg

<svg xmlns="http://www.w3.org/2000/svg" width="24" height="24" viewBox="0 0 24 24" fill="none" stroke="currentColor" stroke-width="2" stroke-linecap="round" stroke-linejoin="round" >
  <path d="M20.9498 14.55L14.5598 20.94C13.1598 22.34 10.8598 22.34 9.44978 20.94L3.05977 14.55C1.65977 13.15 1.65977 10.85 3.05977 9.44001L9.44978 3.05C10.8498 1.65 13.1498 1.65 14.5598 3.05L20.9498 9.44001C22.3498 10.85 22.3498 13.15 20.9498 14.55Z"/>
  <path d="M6.25 6.25L17.75 17.75"/>
  <path d="M17.75 6.25L6.25 17.75"/>
  </svg>

<svg xmlns="http://www.w3.org/2000/svg" width="24" height="24" viewBox="0 0 24 24" fill="none" stroke="currentColor" stroke-width="2" stroke-linecap="round" stroke-linejoin="round">
  <path d="M14.56 20.94a3.634 3.634 0 0 1-5.11 0l-6.39-6.39a3.634 3.634 0 0 1 0-5.11l6.39-6.39a3.634 3.634 0 0 1 5.11 0l6.39 6.39a3.634 3.634 0 0 1 0 5.11z" />
  <path d="m17.75 6.25-11.5 11.5" />
  <path d="m6.25 6.25 11.5 11.5" />
</svg>
